app/assets/images/facebook.svg

<svg enable-background="new -107.775 -40.311 267 267" height="267" viewBox="-107.775 -40.311 267 267" width="267" xmlns="http://www.w3.org/2000/svg"><path d="m76.377 226.584v-103.355h34.692l5.194-40.28h-39.886v-25.717c0-11.663 3.237-19.609 19.961-19.609l21.33-.01v-36.026c-3.689-.49-16.351-1.587-31.08-1.587-30.754 0-51.807 18.771-51.807 53.244v29.705h-34.781v40.28h34.781v103.354h41.596z" fill="#fff"/></svg>

<?xml version="1.0" encoding="utf-8"?>
<!-- Generator: Adobe Illustrator 15.0.2, SVG Export Plug-In  -->
<!DOCTYPE svg PUBLIC "-//W3C//DTD SVG 1.1//EN" "http://www.w3.org/Graphics/SVG/1.1/DTD/svg11.dtd" [
	<!ENTITY ns_flows "http://ns.adobe.com/Flows/1.0/">
]>
<svg version="1.1"
	 xmlns="http://www.w3.org/2000/svg" xmlns:xlink="http://www.w3.org/1999/xlink" xmlns:a="http://ns.adobe.com/AdobeSVGViewerExtensions/3.0/"
	 x="0px" y="0px" width="267px" height="267px" viewBox="-107.775 -40.311 267 267"
	 overflow="visible" enable-background="new -107.775 -40.311 267 267" xml:space="preserve">
<defs>
</defs>
<path fill="#FFFFFF" d="M76.377,226.584V123.229h34.692l5.194-40.28H76.377V57.232c0-11.663,3.237-19.609,19.961-19.609l21.33-0.01
	V1.587C113.979,1.097,101.317,0,86.588,0C55.834,0,34.781,18.771,34.781,53.244v29.705H0v40.28h34.781v103.354H76.377z"/>
</svg>
